X: 10772
M: 6/8
L: 1/8
K: D
fge d2A | d2e fef | gfg eba | gfe d2 H|]
dcd BGB | BdB AFA | (A>d)A G2F | EFD ABc |\
dcd BGB | BdB AFA | BdA GAF | EFD "^D.C."A2 |]


